svg/24/receipt--filled.svg

<svg width="24" height="24" viewBox="0 0 24 24" fill="currentColor" xmlns="http://www.w3.org/2000/svg"><path fill-rule="evenodd" clip-rule="evenodd" d="M4 4C4 2.89543 4.89543 2 6 2H18C19.1046 2 20 2.89543 20 4V21.25C20 21.5557 19.8145 21.8307 19.5311 21.9453C19.2478 22.0599 18.9232 21.991 18.7108 21.7713L16.8333 19.8291L14.9559 21.7713C14.8146 21.9175 14.62 22 14.4167 22C14.2133 22 14.0187 21.9175 13.8774 21.7713L12 19.8291L10.1226 21.7713C9.98126 21.9175 9.78665 22 9.58333 22C9.38001 22 9.1854 21.9175 9.04409 21.7713L7.16667 19.8291L5.28924 21.7713C5.0768 21.991 4.75224 22.0599 4.46887 21.9453C4.18549 21.8307 4 21.5557 4 21.25V4ZM7.75 6C7.33579 6 7 6.33579 7 6.75C7 7.16421 7.33579 7.5 7.75 7.5H16.25C16.6642 7.5 17 7.16421 17 6.75C17 6.33579 16.6642 6 16.25 6H7.75ZM7 9.75C7 9.33579 7.33579 9 7.75 9H11.25C11.6642 9 12 9.33579 12 9.75C12 10.1642 11.6642 10.5 11.25 10.5H7.75C7.33579 10.5 7 10.1642 7 9.75ZM7.75 12C7.33579 12 7 12.3358 7 12.75C7 13.1642 7.33579 13.5 7.75 13.5H11.25C11.6642 13.5 12 13.1642 12 12.75C12 12.3358 11.6642 12 11.25 12H7.75ZM13.5 9.75C13.5 9.33579 13.8358 9 14.25 9H16.25C16.6642 9 17 9.33579 17 9.75C17 10.1642 16.6642 10.5 16.25 10.5H14.25C13.8358 10.5 13.5 10.1642 13.5 9.75ZM14.25 12C13.8358 12 13.5 12.3358 13.5 12.75C13.5 13.1642 13.8358 13.5 14.25 13.5H16.25C16.6642 13.5 17 13.1642 17 12.75C17 12.3358 16.6642 12 16.25 12H14.25Z"/></svg>

<svg xmlns="http://www.w3.org/2000/svg" width="24" height="24" fill="currentColor" viewBox="0 0 24 24">
  <path fill-rule="evenodd" d="M4 4a2 2 0 0 1 2-2h12a2 2 0 0 1 2 2v17.25a.75.75 0 0 1-1.29.521l-1.877-1.942-1.877 1.942a.75.75 0 0 1-1.079 0L12 19.83l-1.877 1.942a.75.75 0 0 1-1.079 0L7.167 19.83l-1.878 1.942A.75.75 0 0 1 4 21.25V4Zm3.75 2a.75.75 0 0 0 0 1.5h8.5a.75.75 0 0 0 0-1.5h-8.5ZM7 9.75A.75.75 0 0 1 7.75 9h3.5a.75.75 0 0 1 0 1.5h-3.5A.75.75 0 0 1 7 9.75ZM7.75 12a.75.75 0 0 0 0 1.5h3.5a.75.75 0 0 0 0-1.5h-3.5Zm5.75-2.25a.75.75 0 0 1 .75-.75h2a.75.75 0 0 1 0 1.5h-2a.75.75 0 0 1-.75-.75Zm.75 2.25a.75.75 0 0 0 0 1.5h2a.75.75 0 0 0 0-1.5h-2Z" clip-rule="evenodd"/>
</svg>
